X:1
T: Amulree
C:
R:Reel
I:speed 232
Q:232
K:G
M:4/4
L:1/16
|:A2|B4 B2G2 c4 c2A2|B4 B2G2 A2=F2 F2A2|B4 B2G2 c4 c2A2|B1/2c1/2d3 e1/2f1/2g3 B2G2 G2A2|
B4 B2G2 c4 c2A2|B4 B2G2 A2=F2 F2A2|B4 B2G2 c4 c2A2|B1/2c1/2d3 e1/2f1/2g3 B2G2 G2:|
|:=f2|e4 e2c2 d4 d2B2|A1/2_B1/2c3 =f4 A2=F2 F2f2|e4 e2c2 d4 d2c2|B1/2c1/2d3 e1/2f1/2g3 B2G2 G2=f2|
e4 e2c2 d4|d2B2 A1/2_B1/2c3 =f4|A2=F2 F2f2 e2e2 e2c2|d2d2 d2c2 B1/2c1/2d3 e1/2f1/2g3 B2G2 G2:|
